X: 10091
T: HEY, CA' THRO'
Q: "Pompously."
%R: slip-jig
B: W. Hamilton "Universal Tune-Book" Vol. 1 Glasgow 1844 p.9 #1
S: http://imslp.org/wiki/Hamilton's_Universal_Tune-Book_(Various)
Z: 2016 John Chambers <jc:trillian.mit.edu>
M: 9/8
L: 1/8
K: D
% - - - - - - - - - - - - - - - - - - - - - - - - -
[|\
d>ed A>BA F2F | d2d A>BA FF2 |\
G2G F>GF E2F | D2F A>BA F2F |\
G2e F2d E2F | D2F A>BA F3 |\
G2e F2d E2F | D2F A>BA F3 |]
% - - - - - - - - - - - - - - - - - - - - - - - - -

%%sep 1 1 500
%%sep 1 1 500

